X:2574
T:Cantar de Ronda (CT 480)
R:Ronda
C:Tradicional
S:Música Tradicional Asturiana, (C) Tello & Tito. Asturies, 2001.
S:http://pagina.de/MusTradAst <telloytito@asturies.org>
N:Canción de Ronda, transcrita en Mieres.
O:Mieres
A:Asturies
Z:Cancioneru de Torner 480
M:9/8
L:1/8
Q:3/8=66
W:Soy de Langreo,
W:mira que soy de Langreo
W:mira que soy langreano,
W:soy langreano,
W:mira que te voy a dar
W:con un palu d'avellano.
K:F
c c>B
|A2-(A/4B/4A/4G/4) F3-F2 G/A/|B3-B2 z c c>B|
A2-(A/4B/4A/4G/4) F3 G2 (F/E/)|D3-D2 z B B>c|
d3-(d2 (5e/4d/4c/4B/4A/4 B-B/c/8B/8A/8G/8 A/ (5B/8A/8G/8F/8E/8|F) F2-F z2 c c>B|
A2-(A/4B/4A/4G/4) F3-F2 G/A/|B3-B2 z c c>B|
A2-(A/4B/4A/4G/4) F3 G2 (F/E/)|D3-D2 z B B>c|
d3-(d2 (5e/4d/4c/4B/4A/4 B-B/c/8B/8A/8G/8 A/ (5B/8A/8G/8F/8E/8|F) F2-F ||


